src/modules/75-ce/components/COHelpSidebar/images/bgTasks.svg

<svg fill="none" height="54" viewBox="0 0 63 54" width="63" xmlns="http://www.w3.org/2000/svg" xmlns:xlink="http://www.w3.org/1999/xlink"><linearGradient id="a" gradientUnits="userSpaceOnUse" x1="32.2789" x2="32.2789" y1="54" y2="24.1508"><stop offset="0" stop-color="#808080" stop-opacity=".25"/><stop offset=".54" stop-color="#808080" stop-opacity=".12"/><stop offset="1" stop-color="#808080" stop-opacity=".1"/></linearGradient><linearGradient id="b" gradientUnits="userSpaceOnUse" x1="15.7835" x2="15.7835" y1="31.7487" y2="26.4573"><stop offset="0" stop-color="#b3b3b3" stop-opacity=".25"/><stop offset=".54" stop-color="#b3b3b3" stop-opacity=".1"/><stop offset="1" stop-color="#b3b3b3" stop-opacity=".05"/></linearGradient><clipPath id="c"><path d="m0 0h63v54h-63z"/></clipPath><g clip-path="url(#c)"><path d="m46.8772 24.5578s1.8968-7.0553-1.8967-14.3141" stroke="#e0e0e0" stroke-linecap="round" stroke-linejoin="round"/><path d="m20.8709 22.2608c.6693-2.738.8691-8.446-7.9705-10.8692" stroke="#e0e0e0" stroke-linecap="round" stroke-linejoin="round"/><path d="m59.7483 24.1508h-54.93873v29.8492h54.93873z" fill="url(#a)"/><path d="m59.3413 24.5578h-54.0581v28.662h54.0581z" fill="#fff"/><path d="m15.7835 31.7487c1.4591 0 2.642-1.1845 2.642-2.6457s-1.1829-2.6457-2.642-2.6457-2.6419 1.1845-2.6419 2.6457 1.1828 2.6457 2.6419 2.6457z" fill="url(#b)"/><path d="m15.7841 31.4774c1.3094 0 2.3709-1.0631 2.3709-2.3744s-1.0615-2.3744-2.3709-2.3744c-1.3095 0-2.371 1.0631-2.371 2.3744s1.0615 2.3744 2.371 2.3744z" fill="#0278d5"/><path d="m34.5483 28.2211h-13.3452v1.3568h13.3452z" fill="#bdbdbd"/><path d="m49.079 37.0063h-33.329v1.3568h33.329z" fill="#e0e0e0"/><path d="m49.079 34.0213h-33.329v1.3568h33.329z" fill="#e0e0e0"/><path d="m49.079 39.9912h-33.329v1.3568h33.329z" fill="#e0e0e0"/><path d="m49.079 42.9761h-33.329v1.3568h33.329z" fill="#e0e0e0"/><path d="m49.079 45.9611h-33.329v1.3567h33.329z" fill="#e0e0e0"/><path d="m49.079 48.946h-33.329v1.3568h33.329z" fill="#e0e0e0"/><path d="m10.5395 22.5735c.0515-1.4667-.1273-3.6593-1.40766-5.1158" stroke="#bdbdbd" stroke-linecap="round" stroke-linejoin="round"/><path d="m41.1596 23.1841c.0515-1.4667-.1273-3.6593-1.4076-5.1158" stroke="#e0e0e0" stroke-linecap="round" stroke-linejoin="round"/><path d="m53.8827 22.5735c-.0515-1.4667.1273-3.6593 1.4077-5.1158" stroke="#bdbdbd" stroke-linecap="round" stroke-linejoin="round"/><g fill="#0278d5"><path d="m7.51936 7.78659h-7.51936v4.09951h7.51936z" opacity=".7"/><path d="m48.7059 5.00517h-7.5194v4.09953h7.5194z" opacity=".7"/><path d="m42.2713 12.3318h-7.5193v4.0995h7.5193z" opacity=".7"/><path d="m17.8694 8.65492h-12.24635v6.67608h12.24635z"/><path d="m63.0003 8.99413h-12.2464v6.67607h12.2464z"/><path d="m35.2591 0h-12.2464v6.67606h12.2464z"/></g><path d="m28.6432 22.5369c.4152-1.4491.6855-3.7644-.6314-6.1544-1.6258-2.9517-.1639-5.8274.6673-7.0797" stroke="#bdbdbd" stroke-linecap="round" stroke-linejoin="round"/></g></svg>

<svg width="63" height="54" viewBox="0 0 63 54" fill="none" xmlns="http://www.w3.org/2000/svg">
<g clip-path="url(#clip0)">
<path d="M46.8772 24.5578C46.8772 24.5578 48.774 17.5025 44.9805 10.2437" stroke="#E0E0E0" stroke-linecap="round" stroke-linejoin="round"/>
<path d="M20.8709 22.2608C21.5402 19.5228 21.74 13.8148 12.9004 11.3916" stroke="#E0E0E0" stroke-linecap="round" stroke-linejoin="round"/>
<path d="M59.7483 24.1508H4.80957V54H59.7483V24.1508Z" fill="url(#paint0_linear)"/>
<path d="M59.3413 24.5578H5.2832V53.2198H59.3413V24.5578Z" fill="white"/>
<path d="M15.7835 31.7487C17.2426 31.7487 18.4255 30.5642 18.4255 29.103C18.4255 27.6418 17.2426 26.4573 15.7835 26.4573C14.3244 26.4573 13.1416 27.6418 13.1416 29.103C13.1416 30.5642 14.3244 31.7487 15.7835 31.7487Z" fill="url(#paint1_linear)"/>
<path d="M15.7841 31.4774C17.0935 31.4774 18.155 30.4143 18.155 29.103C18.155 27.7917 17.0935 26.7286 15.7841 26.7286C14.4746 26.7286 13.4131 27.7917 13.4131 29.103C13.4131 30.4143 14.4746 31.4774 15.7841 31.4774Z" fill="#0278D5"/>
<path d="M34.5483 28.2211H21.2031V29.5779H34.5483V28.2211Z" fill="#BDBDBD"/>
<path d="M49.079 37.0063H15.75V38.3631H49.079V37.0063Z" fill="#E0E0E0"/>
<path d="M49.079 34.0213H15.75V35.3781H49.079V34.0213Z" fill="#E0E0E0"/>
<path d="M49.079 39.9912H15.75V41.348H49.079V39.9912Z" fill="#E0E0E0"/>
<path d="M49.079 42.9761H15.75V44.3329H49.079V42.9761Z" fill="#E0E0E0"/>
<path d="M49.079 45.9611H15.75V47.3178H49.079V45.9611Z" fill="#E0E0E0"/>
<path d="M49.079 48.946H15.75V50.3028H49.079V48.946Z" fill="#E0E0E0"/>
<path d="M10.5395 22.5735C10.591 21.1068 10.4122 18.9142 9.13184 17.4577" stroke="#BDBDBD" stroke-linecap="round" stroke-linejoin="round"/>
<path d="M41.1596 23.1841C41.2111 21.7174 41.0323 19.5248 39.752 18.0683" stroke="#E0E0E0" stroke-linecap="round" stroke-linejoin="round"/>
<path d="M53.8827 22.5735C53.8312 21.1068 54.01 18.9142 55.2904 17.4577" stroke="#BDBDBD" stroke-linecap="round" stroke-linejoin="round"/>
<path opacity="0.7" d="M7.51936 7.78659H0V11.8861H7.51936V7.78659Z" fill="#0278D5"/>
<path opacity="0.7" d="M48.7059 5.00517H41.1865V9.1047H48.7059V5.00517Z" fill="#0278D5"/>
<path opacity="0.7" d="M42.2713 12.3318H34.752V16.4313H42.2713V12.3318Z" fill="#0278D5"/>
<path d="M17.8694 8.65492H5.62305V15.331H17.8694V8.65492Z" fill="#0278D5"/>
<path d="M63.0003 8.99413H50.7539V15.6702H63.0003V8.99413Z" fill="#0278D5"/>
<path d="M35.2591 0H23.0127V6.67606H35.2591V0Z" fill="#0278D5"/>
<path d="M28.6432 22.5369C29.0584 21.0878 29.3287 18.7725 28.0118 16.3825C26.386 13.4308 27.8479 10.5551 28.6791 9.3028" stroke="#BDBDBD" stroke-linecap="round" stroke-linejoin="round"/>
</g>
<defs>
<linearGradient id="paint0_linear" x1="32.2789" y1="54" x2="32.2789" y2="24.1508" gradientUnits="userSpaceOnUse">
<stop stop-color="#808080" stop-opacity="0.25"/>
<stop offset="0.54" stop-color="#808080" stop-opacity="0.12"/>
<stop offset="1" stop-color="#808080" stop-opacity="0.1"/>
</linearGradient>
<linearGradient id="paint1_linear" x1="15.7835" y1="31.7487" x2="15.7835" y2="26.4573" gradientUnits="userSpaceOnUse">
<stop stop-color="#B3B3B3" stop-opacity="0.25"/>
<stop offset="0.54" stop-color="#B3B3B3" stop-opacity="0.1"/>
<stop offset="1" stop-color="#B3B3B3" stop-opacity="0.05"/>
</linearGradient>
<clipPath id="clip0">
<rect width="63" height="54" fill="white"/>
</clipPath>
</defs>
</svg>
